!!!COM:	Compere, Loyset
!!!CDT:	~1445///-1518/08/16
!!!OTL:	Va t'en regret celuy qui me convoye
!!!AGN:	Song; Chanson
!!!SCT:	Com3044
!!!SCA:	Com3044
!!!voices:	3
**kern	**kern	**kern
*staff3	*staff2	*staff1
*Ivox	*Ivox	*Ivox
*I"Bassus	*I"Tenor	*I"Superius
*I'B	*I'T	*I'S
*clefF4	*clefGv2	*clefG2
*k[b-]	*k[b-]	*k[b-]
*M2/1	*M2/1	*M2/1
*met(C|)	*met(C|)	*met(C|)
=1-	=1-	=1-
1C	1c	0r
1F	1c	.
=2	=2	=2
1E	1c	1r
[1D	[1d	1f
=3	=3	=3
1D]	1d]	1f
1D	1d	1f
=4	=4	=4
1C	1e	0g
2C	2e	.
[2G	[2e	.
=5	=5	=5
2G]	2e]	1g
2G	2e	.
1F	[1f	1a
=6	=6	=6
1F	2f]	2a
.	4e	1a
.	4d	.
2r	2c	.
[2F	4B-	2a
.	4A	.
=7	=7	=7
2F]	1G	1b-
2E	.	.
2F	2F	2a
2C	2c	[2g
=8	=8	=8
1D	2A	4g]
.	.	4f
.	2F	1f
1C	1G	.
.	.	2e
=9	=9	=9
1r	0F	[0f
1F	.	.
=10	=10	=10
1F	1r	1f]
4F	1F	1r
4G	.	.
4A	.	.
4B-	.	.
=11	=11	=11
1c	1F	1a
4c	1F	1a
4B-	.	.
4A	.	.
4G	.	.
=12	=12	=12
1F	0c	1a
2E	.	[1g
2C	.	.
=13	=13	=13
1G	1e	1g]
[1F	[1f	2.a
.	.	4b-
=14	=14	=14
1F]	1f]	2cc
.	.	1dd
1BB-	1d	.
.	.	4cc
.	.	4b-
=15	=15	=15
2F	0c	2a
2E	.	2g
1C	.	1cc
=16	=16	=16
2r	1e	4cc
.	.	4b-
2C	.	4a
.	.	4g
2D	1d	2f
2BB-	.	[2b-
=17	=17	=17
1F	2c	4b-]
.	.	4a
.	2A	1a
1G	1B-	.
.	.	2g
=18	=18	=18
1D	0A	[0a
1r	.	.
=19	=19	=19
1D	1r	1a]
1D	1d	1r
=20	=20	=20
1D	1d	1a
2D	1d	1a
[2F	.	.
=21	=21	=21
4F]	0c	1a
4E	.	.
2F	.	.
2E	.	[1g
2C	.	.
=22	=22	=22
1G	1e	1g]
2F	1f	2a
4G	.	4b-
4A	.	4cc
=23	=23	=23
2B-	4f	2dd
.	4e	.
2A	4d	1cc
.	4c	.
1G	1d	.
.	.	2b-
=24	=24	=24
2F	2r	2a
1A	1c	4g
.	.	4f
.	.	2e
4G	4B-	[2a
4F	4A	.
=25	=25	=25
1G	1B-	2a]
.	.	2g
2D	2A	2f
2E	2c	[2g
=26	=26	=26
2F	4B-	4g]
.	4A	4f
2D	4G	1f
.	4F	.
1C	1G	.
.	.	2e
=27	=27	=27
!LO:TX:Z=8:t=s.c.	!LO:TX:Z=8:t=s.c.	!LO:TX:Z=8:t=s.c.
2r	1F	0f
2F	.	.
2F	1r	.
2F	.	.
=28	=28	=28
4F	1F	0r
4G	.	.
4A	.	.
4B-	.	.
1c	1F	.
=29	=29	=29
4c	1F	1a
4B-	.	.
4A	.	.
4G	.	.
[1F	[1c	1a
=30	=30	=30
1F]	2c]	1a
.	2d	.
1E	2e	1g
.	4d	.
.	4e	.
=31	=31	=31
2D	1f	2r
2F	.	2.dd
2G	2.e	.
.	.	4cc
2A	.	[2cc
.	4c	.
=32	=32	=32
1G	1d	2cc]
.	.	2bni
2.C	[1c	[1cc
4D	.	.
=33	=33	=33
2E	1c]	2cc]
1F	.	4b-
.	.	4a
.	1c	2a
4E	.	4g
4D	.	4f
=34	=34	=34
1C	1c	1e
1BB-	[1d	2r
.	.	[2d
=35	=35	=35
4BB-	2d]	4d]
4C	.	4e
4D	2d	4f
4E	.	4g
2F	4d	2a
.	4c	.
[2G	4B-	[2b-
.	4A	.
=36	=36	=36
4G]	2G	4b-]
4F	.	4a
2G	2B-	1g
1D	1A	.
.	.	2f#i
=37	=37	=37
2r	2.G	0g
2.G	.	.
.	4A	.
.	2B-	.
4F	.	.
4E	[2c	.
4D	.	.
=38	=38	=38
2C	4c]	1r
.	4B-	.
2.c	4A	.
.	4G	.
.	[1F	1a
4B-	.	.
4A	.	.
4G	.	.
=39	=39	=39
2F	1F]	1a
2D	.	.
1E	1r	1g
=40	=40	=40
1D	1A	1f
2C	1A	1r
[2F	.	.
=41	=41	=41
2F]	1G	1b-
2E	.	.
2F	1F	2a
2D	.	2a
=42	=42	=42
2.E-	1r	2g
.	.	2g
4D	.	.
1BB-	1B-	2f
.	.	4e
.	.	4d
=43	=43	=43
1r	2A	4c
.	.	4d
.	2A	4e
.	.	4f
1B-	2G	4g
.	.	4a
.	2G	2b-
=44	=44	=44
2c	2F	2a
2F	4E	4g
.	4D	4f
2G	2C	4e
.	.	4f
2C	2c	4g
.	.	4a
=45	=45	=45
1D	4B-	4g
.	4A	4f
.	4G	1f
.	4F	.
1C	1G	.
.	.	2e
=46	=46	=46
0Fl	0Fl	0fl
==	==	==
*-	*-	*-
!!!RDF**kern: l=long note in original notation
!!!RDF**kern: i=editorial accidental
!!!ENC:	Megan K. Eagen 2013/11/30
!!!END:	2013/11/30/
!!!EED:	Jesse Rodin
!!!EEV:	2014/02/23/
!!!ONB:	Translated from MusicXML and edited on 2014/02/23/ by Craig Sapp
!!muse2ps: C^@{COM}^i2I150v95,95,150Q16
